icons/bhi_question.svg

<svg xmlns="http://www.w3.org/2000/svg" viewBox="0 0 512 512" enable-background="new 0 0 512 512"><path fill="#010101" d="M257.5 1.9c-140 0-254.5 114.6-254.5 254.5s114.5 254.5 254.5 254.5 254.5-114.5 254.5-254.5-114.5-254.5-254.5-254.5zm25.5 432.7h-50.9v-50.9h50.9v50.9zm53.4-196l-22.9 22.9c-20.4 17.8-30.5 33.1-30.5 71.3h-50.9v-12.8c0-28 10.2-53.5 30.5-71.3l30.5-33.1c10.2-7.6 15.3-20.4 15.3-35.6 0-28-22.9-50.9-50.9-50.9s-50.9 22.9-50.9 50.9h-50.9c0-56 45.8-101.8 101.8-101.8s101.8 45.8 101.8 101.8c0 23-10.2 43.3-22.9 58.6z"/></svg>

<?xml version="1.0" encoding="utf-8"?>
<!-- Generator: Adobe Illustrator 19.2.0, SVG Export Plug-In . SVG Version: 6.00 Build 0)  -->
<svg version="1.1" id="Layer_1" xmlns="http://www.w3.org/2000/svg" xmlns:xlink="http://www.w3.org/1999/xlink" x="0px" y="0px"
	 viewBox="0 0 512 512" enable-background="new 0 0 512 512" xml:space="preserve">
<g id="help_3_">
	<path fill="#010101" d="M257.5,1.9C117.5,1.9,3,116.5,3,256.4s114.5,254.5,254.5,254.5S512,396.4,512,256.4S397.5,1.9,257.5,1.9z
		 M283,434.6h-50.9v-50.9H283V434.6z M336.4,238.6l-22.9,22.9c-20.4,17.8-30.5,33.1-30.5,71.3h-50.9V320c0-28,10.2-53.5,30.5-71.3
		l30.5-33.1c10.2-7.6,15.3-20.4,15.3-35.6c0-28-22.9-50.9-50.9-50.9s-50.9,22.9-50.9,50.9h-50.9c0-56,45.8-101.8,101.8-101.8
		s101.8,45.8,101.8,101.8C359.3,203,349.1,223.3,336.4,238.6z"/>
</g>
</svg>
